X: 39818
T: Theresa Beaton's
R: jig
M: 6/8
K: Gminor
|:DC|B,zB BAB|Czc cBc|dbB ceA|Bdc BFD|
B,zB BAB|Czc cBc|dbB ceA|B3 B:|
ze|d2f f=ef|bag fdB|c2g gfg|bag fdB|
[1 B2f f=ef|bag fdB|cAF FAc|Bdc B:|
[2 fdf geg|fga bag|fdB cAF|Bdc B||

